X: 23058
T: Late Again
R: reel
M: 4/4
K: Dmajor
|:dAFA dAFA|BAGB AFD2|dAFA dAFA|BAGF EFGE|
dAFA dAFA|BAGB AFD2|FGAB AFED|1 (3EFE D2 D2Bc:|2 (3EFE D2 D2fg||
|:afdf afdf|gabg afdf|afdf afdf|bagf efg/f/e|
afdf afdf|gabg afde|fedf edcd|1 (3efe d2 defg:|2 (3efe d2 dABc||

